X:1
T:Le cueur, le corps
T:Pellegrune Symon
T:Source : Livre XX de 28 chansons nouvelles à 4 parties---Paris---P.Attaingnant---1546. Editor : André Vierendeels (20/07/18) Notes : Original clefs : G2, C2, C3, C4 Original note values have been halved Editorial accidentals above the staff Square bracket indicates ligature
T:Le cueur, le corps
T:©
T:©
T:©
C:Pellegrune Symon
Z:©
%%score [ 1 2 [ 3 4 ] ]
L:1/8
Q:1/4=120
M:2/2
K:C
V:1 treble nm="Soprano" snm="S"
V:2 treble nm="Alto" snm="A"
V:3 treble-8 nm="Tenor 1" snm="T 1"
V:4 treble-8 nm="Tenor 2" snm="T 2"
V:1
 G8 | A3 G AB c2- | c2 B2 c4 | z4 z2 c2 | c2 B2 A2 A2 | G3 F/E/ D2 A2- | AG G4 F2 | G4 z2 c2 | %8
w: Le|cueur, _ _ _ _|_ le corps,|le|sens _ _ l'en-|ten- * * * *|* * * de-|ment, vous|
 c4 d4 | G2 c2 c2 c2 | d2 d2 e3 d | edcB AG c2- | c2 B2 c4 | z4 z2 c2 | A2 B2 c4 | z2 c2 c2 c2 | %16
w: seul- le'a-|vez voi- re'à com-|men- de- ment, _|_ _ _ _ _ _ _||le|cueur le veult|et le corps|
 e2 g3 f/e/ e2- | e2 d2 e4 | z2 c2 c2 B2 | c4 z2 G2 | GABc d2 d2 | G2 A3 G G2- |"^#" G2 F2 G4 |: %23
w: s'ap- pa- * * reil-|* * le,|le sens est|prest, l'en-|ten- * * * * de|_ ment y veil-|* * le,|
 z4 G4 | A3 G AB c2- | c2 B2 c4 | z4 z2 c2 | c2 B2 A2 A2 | GFGA Bc d2- | dc c4 B2 | c8 :| %31
w: ain-|si ie _ _ _|_ _ suis|le|vo- * * str'e-|vi- * * * * * *|* * * dem-|ment.|
V:2
 E8 | F6 E2 | G8- | G4 z4 | z2 G2 G2 F2 | E2 D3 E F2 | E2 C2 D4 |"^#" z2 G2 G4 | A4 B4 | %9
w: Le|cueur le|corps,|_|le sens, l'en-|ten- * * *|* de- ment,|vous seul-|le'a- vez,|
 z2 G2 A3 G | A2 B2 c2 G2 | G2 G2 A2 F2 | G8 | z4 z2 E2 | F2 D2 C4 | z2 G2 A2 A2 | G2 c3 B c2 | %17
w: vous seul- le'a-|vez voi- re'à com-|men- * * de-|ment,|le|cueur le veult|et le corps|s'a- pa- * *|
 A4 A2 G2 | G2 F2 G4- | G8 | z2 G2 F2 G2 | D2 D2 E2 C2 | D8 |: z4 E4 | F6 E2 | G8- | G4 z4 | %27
w: reil- le, le|sens est prest,|_|l'en- ten- de-|ment y veil- *|le,|ain-|si ie|suis|_|
 z2 G2 G2 F2 | E2 D2 G2 A2- | A2 F2 G4 | E8 :| %31
w: le vo- str'e-|vi- * * *|* * dem-|ment.|
V:3
 c8- | c4 c4 | d4 c4 | z2 g2 g2 f2 | e2 d2 c2 d2 | G3 A BcdB | cBAG A4 | G4 z2 e2 | f4 d4 | %9
w: Le|_ cueur,|le corps,|le sens, l'en-|ten- de- * *||* * * * de-|ment, vous|seul- le'a-|
 c4 z2 c2 | f2 f2 edef | g2 e2 fedc | d4 c2 c2 | A2 B2 c4 | z4 z2 c2 | e2 e2 f2 f2 | e2 cd efge | %17
w: vez voi-|re'à com- men- * * *||* ment, le|cueur le veult|et|le corps s'ap- pa-|reil- * * * * * *|
 f4 e4 | z2 c2 e2 d2 | c4 z4 | d4 d2 d2 | B2 d2 cBAG | A4 G4 |: z4 c4- | c4 c4 | d4 c4 | %26
w: * le,|le sens est|prest,|l'en- ten- de-|ment y veil- * * *|* le,|ain-|* si|ie suis|
 z2 g2 g2 f2 | e2 d2 c2 d2 | G4 z2 f2 | feed/c/ d2 d2 | c8 :| %31
w: le vo- str'e-|vi- dem- * *|ment, e-|vi- * * * * * dem-|ment.|
V:4
 C8 | F3 E F2 A2 | G4 z2 c2 | c2 B2 A2 A2 | G4 z4 | z2 G2 G2 F2 | C2 E2 D4 | z2 G2 c4 | A4 G4 | %9
w: Le|cueur _ _ le|corps, le|sens, l'en- ten- de-|ment,|le sens l'en-|ten- de- ment,|vous seul-|le'a- vez|
 z2 C2 F3 E | D2 D2 C2 c2 | c2 c2 F2 A2 | G4 z2 C2 | F2 D2 C4 | z2 G2 A2 F2 | c4 z2 F2 | %16
w: voi- re'à com-|men- de ment, voi-|re'à com- men- de-|ment, le|cueur le veult|le cueur le|veult et|
 c3 c c2 c2 | d4 A2 c2 | B2 A2 G4 | z2 C2 CDEF | G2 G2 D2 G2- | G2 F2 E4 | D4 G4 |: z4 C4 | %24
w: le- corps s'ap- pa-|reil- le, le|sens est prest,|l'en- ten- * * *|* de- * ment|_ y veil-|* le,|ain-|
 F3 E F2 A2 | G4 z2 c2 | c2 B2 A2 A2 | G4 z4 | z2 G2 G2 F2 | A4 G4 | C8 :| %31
w: si _ _ ie|suis le|vo- str'e- vi- dem-|ment|le vo- str'e-|vi- dem-|ment.|

